;FLAVOR:Repetier
;TIME:12666
;MINX:23.167
;MINY:46.829
;MINZ:0.24
;MAXX:251.493
;MAXY:176.449
;MAXZ:4.79
;Generated with Cura_SteamEngine 4.4.1
M190 S60
M104 S200
M109 S200
M82 ;absolute extrusion mode
M911 3DP-310F
M201 X400 Y400
M202 X400 Y400
G28 ; Home
G1 Z15.0 F6000 ;move the platform down 15mm
;Prime the extruder
G92 E0
G1 F200 E3
G92 E0
G92 E0
G92 E0
G1 F1500 E-1.5
;LAYER_COUNT:8
;LAYER:-5
M107
G0 F7200 X33.085 Y53.229 Z0.24
;TYPE:SUPPORT-INTERFACE
G1 F1500 E0
G1 F1350 X33.944 Y52.9 E0.07343
G1 X34.094 Y52.848 E0.0861
G1 X34.944 Y52.593 E0.15694
G1 X35.117 Y52.547 E0.17123
G1 X36.012 Y52.346 E0.24445
G1 X36.142 Y52.323 E0.25499
G1 X37.047 Y52.189 E0.32802
G1 X37.216 Y52.171 E0.34158
G1 X38.289 Y52.096 E0.42744
G1 X38.794 Y52.088 E0.46776
G1 X137.453 Y52.088 E8.34315
G1 X138.121 Y52.046 E8.39658
G1 X138.792 Y51.917 E8.45112
G1 X139.441 Y51.704 E8.50564
G1 X140.058 Y51.412 E8.56013
G1 X140.631 Y51.046 E8.61441
G1 X141.04 Y50.713 E8.65651
G1 X141.318 Y50.464 E8.6863
G1 X141.434 Y50.367 E8.69837
G1 X142.146 Y49.817 E8.77019
G1 X142.305 Y49.704 E8.78576
G1 X143.043 Y49.214 E8.85647
G1 X143.169 Y49.138 E8.86821
G1 X143.963 Y48.692 E8.94091
G1 X144.113 Y48.614 E8.95441
G1 X144.928 Y48.231 E9.02629
G1 X145.071 Y48.171 E9.03867
G1 X145.93 Y47.842 E9.11209
G1 X146.08 Y47.79 E9.12477
G1 X146.93 Y47.535 E9.1956
G1 X147.103 Y47.489 E9.20989
G1 X147.998 Y47.288 E9.28312
G1 X148.128 Y47.265 E9.29365
G1 X149.033 Y47.131 E9.36668
G1 X149.202 Y47.113 E9.38025
G1 X150.275 Y47.038 E9.46611
G1 X150.78 Y47.03 E9.50643
G1 X233.238 Y47.03 E16.08858
G1 X233.273 Y47.031 E16.09138
G1 X234.397 Y47.076 E16.18117
G1 X235.314 Y47.178 E16.25482
G1 X235.489 Y47.203 E16.26893
G1 X236.378 Y47.367 E16.34109
G1 X236.501 Y47.395 E16.35116
G1 X237.395 Y47.629 E16.42493
G1 X237.555 Y47.677 E16.43826
G1 X238.4 Y47.965 E16.50952
G1 X238.566 Y48.028 E16.5237
G1 X239.369 Y48.369 E16.59334
G1 X239.558 Y48.457 E16.60998
G1 X240.469 Y48.931 E16.69195
G1 X241.248 Y49.406 E16.76478
G1 X241.399 Y49.506 E16.77924
G1 X242.113 Y50.017 E16.84933
G1 X242.261 Y50.13 E16.86419
G1 X242.952 Y50.706 E16.936
G1 X243.065 Y50.807 E16.9481
G1 X243.714 Y51.432 E17.02002
G1 X243.834 Y51.557 E17.03385
G1 X244.437 Y52.228 E17.10587
G1 X244.533 Y52.344 E17.11789
G1 X245.083 Y53.056 E17.1897
G1 X245.196 Y53.215 E17.20527
G1 X245.686 Y53.953 E17.27599
G1 X245.762 Y54.079 E17.28773
G1 X246.208 Y54.873 E17.36043
G1 X246.286 Y55.023 E17.37392
G1 X246.669 Y55.838 E17.44581
G1 X246.729 Y55.981 E17.45819
G1 X247.058 Y56.84 E17.53161
G1 X247.11 Y56.99 E17.54428
G1 X247.365 Y57.84 E17.61512
G1 X247.411 Y58.013 E17.62941
G1 X247.61 Y58.899 E17.7019
G1 X247.635 Y59.038 E17.71317
G1 X247.768 Y59.937 E17.78572
G1 X247.786 Y60.099 E17.79873
G1 X247.862 Y61.185 E17.88563
G1 X247.87 Y61.686 E17.92562
G1 X247.87 Y99.716 E20.96134
G1 X247.834 Y100.722 E21.0417
G1 X247.824 Y100.857 E21.0525
G1 X247.722 Y101.774 E21.12615
G1 X247.697 Y101.949 E21.14027
G1 X247.535 Y102.827 E21.21153
G1 X247.505 Y102.961 E21.2225
G1 X247.274 Y103.846 E21.29551
G1 X247.222 Y104.018 E21.30985
G1 X246.935 Y104.86 E21.38086
G1 X246.872 Y105.026 E21.39503
G1 X246.531 Y105.829 E21.46467
G1 X246.45 Y106.004 E21.48006
G1 X245.811 Y107.246 E21.59156
G1 X245.827 Y107.254 E21.59299
G1 X245.786 Y107.339 E21.60052
G1 X245.569 Y107.987 E21.65507
G1 X245.436 Y108.657 E21.7096
G1 X245.388 Y109.337 E21.76401
G1 X245.427 Y110.019 E21.81854
G1 X245.551 Y110.691 E21.87309
G1 X245.76 Y111.341 E21.92759
G1 X246.048 Y111.96 E21.98209
G1 X246.416 Y112.542 E22.03705
G1 X247.039 Y113.257 E22.11275
G1 X247.145 Y113.359 E22.1245
G1 X247.248 Y113.466 E22.13635
G1 X247.86 Y114.147 E22.20944
G1 X247.956 Y114.263 E22.22146
G1 X248.506 Y114.975 E22.29327
G1 X248.619 Y115.134 E22.30885
G1 X249.109 Y115.872 E22.37956
G1 X249.185 Y115.998 E22.3913
G1 X249.631 Y116.792 E22.464
G1 X249.709 Y116.942 E22.47749
G1 X250.092 Y117.757 E22.54938
G1 X250.152 Y117.9 E22.56176
G1 X250.481 Y118.759 E22.63518
G1 X250.533 Y118.909 E22.64786
G1 X250.788 Y119.759 E22.71869
G1 X250.834 Y119.932 E22.73298
G1 X251.033 Y120.818 E22.80547
G1 X251.058 Y120.957 E22.81674
G1 X251.191 Y121.856 E22.88929
G1 X251.209 Y122.018 E22.9023
G1 X251.285 Y123.104 E22.9892
G1 X251.293 Y123.605 E23.0292
G1 X251.293 Y161.635 E26.06491
G1 X251.257 Y162.641 E26.14527
G1 X251.247 Y162.776 E26.15608
G1 X251.145 Y163.693 E26.22973
G1 X251.12 Y163.868 E26.24384
G1 X250.958 Y164.746 E26.31511
G1 X250.928 Y164.88 E26.32607
G1 X250.697 Y165.765 E26.39908
G1 X250.645 Y165.937 E26.41342
G1 X250.358 Y166.779 E26.48443
G1 X250.295 Y166.945 E26.4986
G1 X249.954 Y167.748 E26.56824
G1 X249.873 Y167.923 E26.58364
G1 X249.392 Y168.848 E26.66686
G1 X248.917 Y169.627 E26.73969
G1 X248.817 Y169.778 E26.75415
G1 X248.306 Y170.492 E26.82424
G1 X248.193 Y170.64 E26.8391
G1 X247.617 Y171.331 E26.91091
G1 X247.516 Y171.444 E26.92301
G1 X246.891 Y172.093 E26.99493
G1 X246.766 Y172.213 E27.00876
G1 X246.096 Y172.815 E27.08066
G1 X245.983 Y172.909 E27.09239
G1 X245.267 Y173.462 E27.16461
G1 X245.108 Y173.575 E27.18018
G1 X244.37 Y174.065 E27.25089
G1 X244.244 Y174.141 E27.26264
G1 X243.45 Y174.587 E27.33533
G1 X243.299 Y174.665 E27.3489
G1 X242.485 Y175.048 E27.42071
G1 X242.342 Y175.108 E27.43309
G1 X241.483 Y175.437 E27.50652
G1 X241.333 Y175.489 E27.51919
G1 X240.483 Y175.744 E27.59003
G1 X240.31 Y175.79 E27.60432
G1 X239.415 Y175.991 E27.67754
G1 X239.285 Y176.014 E27.68808
G1 X238.38 Y176.148 E27.76111
G1 X238.212 Y176.166 E27.77459
G1 X237.138 Y176.241 E27.86053
G1 X236.633 Y176.249 E27.90085
G1 X154.175 Y176.249 E34.483
G1 X154.14 Y176.248 E34.4858
G1 X153.016 Y176.203 E34.57559
G1 X152.099 Y176.101 E34.64924
G1 X151.924 Y176.076 E34.66335
G1 X151.035 Y175.912 E34.73552
G1 X150.912 Y175.884 E34.74559
G1 X150.018 Y175.65 E34.81935
G1 X149.855 Y175.601 E34.83294
G1 X149.013 Y175.314 E34.90395
G1 X148.847 Y175.251 E34.91812
G1 X148.044 Y174.91 E34.98776
G1 X147.855 Y174.822 E35.0044
G1 X146.944 Y174.348 E35.08638
G1 X146.175 Y173.879 E35.15828
G1 X145.986 Y173.754 E35.17637
G1 X145.405 Y173.421 E35.22982
G1 X144.775 Y173.159 E35.28429
G1 X144.117 Y172.978 E35.33876
G1 X143.445 Y172.882 E35.39295
G1 X143.026 Y172.866 E35.42642
G1 X38 Y172.866 E43.81005
G1 X37.965 Y172.865 E43.81284
G1 X36.841 Y172.82 E43.90264
G1 X35.924 Y172.718 E43.97629
G1 X35.749 Y172.693 E43.9904
G1 X34.86 Y172.529 E44.06256
G1 X34.737 Y172.501 E44.07263
G1 X33.843 Y172.267 E44.1464
G1 X33.68 Y172.218 E44.15998
G1 X32.838 Y171.931 E44.23099
G1 X32.672 Y171.868 E44.24517
G1 X31.869 Y171.527 E44.3148
G1 X31.68 Y171.439 E44.33145
G1 X30.769 Y170.965 E44.41342
G1 X29.99 Y170.49 E44.48625
G1 X29.839 Y170.39 E44.50071
G1 X29.125 Y169.879 E44.5708
G1 X28.977 Y169.766 E44.58566
G1 X28.286 Y169.19 E44.65747
G1 X28.173 Y169.089 E44.66957
G1 X27.524 Y168.464 E44.74149
G1 X27.404 Y168.339 E44.75532
G1 X26.801 Y167.668 E44.82733
G1 X26.704 Y167.55 E44.83953
G1 X26.146 Y166.828 E44.91237
G1 X26.042 Y166.681 E44.92674
G1 X25.548 Y165.937 E44.99803
G1 X25.476 Y165.817 E45.0092
G1 X25.024 Y165.012 E45.0829
G1 X24.952 Y164.873 E45.09539
G1 X24.569 Y164.057 E45.16735
G1 X24.504 Y163.903 E45.18069
G1 X24.18 Y163.056 E45.25308
G1 X24.123 Y162.891 E45.26701
G1 X23.873 Y162.056 E45.33659
G1 X23.827 Y161.883 E45.35088
G1 X23.625 Y160.982 E45.42459
G1 X23.603 Y160.858 E45.43464
G1 X23.468 Y159.944 E45.50839
G1 X23.451 Y159.784 E45.52123
G1 X23.376 Y158.711 E45.60709
G1 X23.368 Y158.21 E45.64709
G1 X23.368 Y120.18 E48.68281
G1 X23.404 Y119.174 E48.76316
G1 X23.414 Y119.039 E48.77397
G1 X23.516 Y118.122 E48.84762
G1 X23.541 Y117.947 E48.86173
G1 X23.703 Y117.069 E48.933
G1 X23.733 Y116.935 E48.94396
G1 X23.964 Y116.051 E49.0169
G1 X24.022 Y115.859 E49.03291
G1 X24.303 Y115.036 E49.10233
G1 X24.366 Y114.87 E49.1165
G1 X24.702 Y114.077 E49.18525
G1 X24.815 Y113.837 E49.20642
G1 X25.059 Y113.214 E49.25983
G1 X25.228 Y112.552 E49.31437
G1 X25.311 Y111.875 E49.36881
G1 X25.309 Y111.191 E49.42342
G1 X25.219 Y110.51 E49.47825
G1 X25.135 Y110.219 E49.50243
G1 X25.168 Y110.219 E49.50506
G1 X24.89 Y109.414 E49.57304
G1 X24.639 Y108.578 E49.64272
G1 X24.593 Y108.405 E49.65701
G1 X24.391 Y107.504 E49.73071
G1 X24.369 Y107.38 E49.74077
G1 X24.234 Y106.466 E49.81452
G1 X24.217 Y106.306 E49.82736
G1 X24.142 Y105.233 E49.91322
G1 X24.134 Y104.732 E49.95322
G1 X24.134 Y66.702 E52.98894
G1 X24.17 Y65.696 E53.06929
G1 X24.18 Y65.561 E53.0801
G1 X24.282 Y64.644 E53.15375
G1 X24.307 Y64.469 E53.16786
G1 X24.469 Y63.591 E53.23913
G1 X24.499 Y63.457 E53.25009
G1 X24.73 Y62.572 E53.3231
G1 X24.782 Y62.4 E53.33745
G1 X25.069 Y61.558 E53.40845
G1 X25.132 Y61.392 E53.42263
G1 X25.473 Y60.589 E53.49227
G1 X25.554 Y60.414 E53.50766
G1 X26.035 Y59.489 E53.59088
G1 X26.51 Y58.71 E53.66372
G1 X26.61 Y58.559 E53.67817
G1 X27.121 Y57.845 E53.74826
G1 X27.234 Y57.697 E53.76312
G1 X27.901 Y56.903 E53.8459
G1 X28.536 Y56.244 E53.91895
G1 X28.661 Y56.124 E53.93278
G1 X29.332 Y55.521 E54.0048
G1 X29.448 Y55.425 E54.01681
G1 X30.16 Y54.875 E54.08863
G1 X30.319 Y54.762 E54.1042
G1 X31.057 Y54.272 E54.17492
G1 X31.183 Y54.196 E54.18666
G1 X31.977 Y53.75 E54.25936
G1 X32.127 Y53.672 E54.27285
G1 X32.942 Y53.289 E54.34473
G1 X33.085 Y53.229 E54.35711
G0 F7200 X32.6 Y53.449
G1 F1350 X32.6 Y171.837 E63.80736
G0 F7200 X34.2 Y172.36
G1 F1350 X34.2 Y52.816 E73.34987
G0 F7200 X35.8 Y52.393
G1 F1350 X35.8 Y172.7 E82.9533
G0 F7200 X37.4 Y172.842
G1 F1350 X37.4 Y52.158 E92.58682
G0 F7200 X39 Y52.088
G1 F1350 X39 Y172.866 E102.22784
G0 F7200 X40.6 Y172.866
G1 F1350 X40.6 Y52.088 E111.86886
G0 F7200 X42.2 Y52.088
G1 F1350 X42.2 Y172.866 E121.50988
G0 F7200 X43.8 Y172.866
G1 F1350 X43.8 Y52.088 E131.15091
G0 F7200 X45.4 Y52.088
G1 F1350 X45.4 Y172.866 E140.79193
G0 F7200 X47 Y172.866
G1 F1350 X47 Y52.088 E150.43295
G0 F7200 X48.6 Y52.088
G1 F1350 X48.6 Y172.866 E160.07397
G0 F7200 X50.2 Y172.866
G1 F1350 X50.2 Y52.088 E169.715
G0 F7200 X51.8 Y52.088
G1 F1350 X51.8 Y172.866 E179.35602
G0 F7200 X53.4 Y172.866
G1 F1350 X53.4 Y52.088 E188.99704
G0 F7200 X55 Y52.088
G1 F1350 X55 Y172.866 E198.63806
G0 F7200 X56.6 Y172.866
G1 F1350 X56.6 Y52.088 E208.27908
G0 F7200 X58.2 Y52.088
G1 F1350 X58.2 Y172.866 E217.92011
G0 F7200 X59.8 Y172.866
G1 F1350 X59.8 Y52.088 E227.56113
G0 F7200 X61.4 Y52.088
G1 F1350 X61.4 Y172.866 E237.20215
G0 F7200 X63 Y172.866
G1 F1350 X63 Y52.088 E246.84317
G0 F7200 X64.6 Y52.088
G1 F1350 X64.6 Y172.866 E256.4842
G0 F7200 X66.2 Y172.866
G1 F1350 X66.2 Y52.088 E266.12522
G0 F7200 X67.8 Y52.088
G1 F1350 X67.8 Y172.866 E275.76624
G0 F7200 X69.4 Y172.866
G1 F1350 X69.4 Y52.088 E285.40726
G0 F7200 X71 Y52.088
G1 F1350 X71 Y172.866 E295.04828
G0 F7200 X72.6 Y172.866
G1 F1350 X72.6 Y52.088 E304.68931
G0 F7200 X74.2 Y52.088
G1 F1350 X74.2 Y172.866 E314.33033
G0 F7200 X75.8 Y172.866
G1 F1350 X75.8 Y52.088 E323.97135
G0 F7200 X77.4 Y52.088
G1 F1350 X77.4 Y172.866 E333.61237
G0 F7200 X79 Y172.866
G1 F1350 X79 Y52.088 E343.2534
G0 F7200 X80.6 Y52.088
G1 F1350 X80.6 Y172.866 E352.89442
G0 F7200 X82.2 Y172.866
G1 F1350 X82.2 Y52.088 E362.53544
G0 F7200 X83.8 Y52.088
G1 F1350 X83.8 Y172.866 E372.17646
G0 F7200 X85.4 Y172.866
G1 F1350 X85.4 Y52.088 E381.81748
G0 F7200 X87 Y52.088
G1 F1350 X87 Y172.866 E391.45851
G0 F7200 X88.6 Y172.866
G1 F1350 X88.6 Y52.088 E401.09953
G0 F7200 X90.2 Y52.088
G1 F1350 X90.2 Y172.866 E410.74055
G0 F7200 X91.8 Y172.866
G1 F1350 X91.8 Y52.088 E420.38157
G0 F7200 X93.4 Y52.088
G1 F1350 X93.4 Y172.866 E430.0226
G0 F7200 X95 Y172.866
G1 F1350 X95 Y52.088 E439.66362
G0 F7200 X96.6 Y52.088
G1 F1350 X96.6 Y172.866 E449.30464
G0 F7200 X98.2 Y172.866
G1 F1350 X98.2 Y52.088 E458.94566
G0 F7200 X99.8 Y52.088
G1 F1350 X99.8 Y172.866 E468.58668
G0 F7200 X101.4 Y172.866
G1 F1350 X101.4 Y52.088 E478.22771
G0 F7200 X103 Y52.088
G1 F1350 X103 Y172.866 E487.86873
G0 F7200 X104.6 Y172.866
G1 F1350 X104.6 Y52.088 E497.50975
G0 F7200 X106.2 Y52.088
G1 F1350 X106.2 Y172.866 E507.15077
G0 F7200 X107.8 Y172.866
G1 F1350 X107.8 Y52.088 E516.7918
G0 F7200 X109.4 Y52.088
G1 F1350 X109.4 Y172.866 E526.43282
G0 F7200 X111 Y172.866
G1 F1350 X111 Y52.088 E536.07384
G0 F7200 X112.6 Y52.088
G1 F1350 X112.6 Y172.866 E545.71486
G0 F7200 X114.2 Y172.866
G1 F1350 X114.2 Y52.088 E555.35588
G0 F7200 X115.8 Y52.088
G1 F1350 X115.8 Y172.866 E564.99691
G0 F7200 X117.4 Y172.866
G1 F1350 X117.4 Y52.088 E574.63793
G0 F7200 X119 Y52.088
G1 F1350 X119 Y172.866 E584.27895
G0 F7200 X120.6 Y172.866
G1 F1350 X120.6 Y52.088 E593.91997
G0 F7200 X122.2 Y52.088
G1 F1350 X122.2 Y172.866 E603.561
G0 F7200 X123.8 Y172.866
G1 F1350 X123.8 Y52.088 E613.20202
G0 F7200 X125.4 Y52.088
G1 F1350 X125.4 Y172.866 E622.84304
G0 F7200 X127 Y172.866
G1 F1350 X127 Y52.088 E632.48406
G0 F7200 X128.6 Y52.088
G1 F1350 X128.6 Y172.866 E642.12508
G0 F7200 X130.2 Y172.866
G1 F1350 X130.2 Y52.088 E651.76611
G0 F7200 X131.8 Y52.088
G1 F1350 X131.8 Y172.866 E661.40713
G0 F7200 X133.4 Y172.866
G1 F1350 X133.4 Y52.088 E671.04815
G0 F7200 X135 Y52.088
G1 F1350 X135 Y172.866 E680.68917
G0 F7200 X136.6 Y172.866
G1 F1350 X136.6 Y52.088 E690.3302
G0 F7200 X138.2 Y52.03
G1 F1350 X138.2 Y172.866 E699.97585
G0 F7200 X139.8 Y172.866
G1 F1350 X139.8 Y51.534 E709.66109
G0 F7200 X141.4 Y50.395
G1 F1350 X141.4 Y172.866 E719.43726
G0 F7200 X143 Y172.866
G1 F1350 X143 Y49.242 E729.30546
G0 F7200 X144.6 Y48.385
G1 F1350 X144.6 Y173.11 E739.26155
G0 F7200 X146.2 Y173.894
G1 F1350 X146.2 Y47.754 E749.33059
G0 F7200 X147.8 Y47.332
G1 F1350 X147.8 Y174.793 E759.50508
G0 F7200 X149.4 Y175.445
G1 F1350 X149.4 Y47.099 E769.75021
G0 F7200 X151 Y47.03
G1 F1350 X151 Y175.904 E780.03749
G0 F7200 X152.6 Y176.156
G1 F1350 X152.6 Y47.03 E790.34489
G0 F7200 X154.2 Y47.03
G1 F1350 X154.2 Y176.249 E800.6597
G0 F7200 X155.8 Y176.249
G1 F1350 X155.8 Y47.03 E810.97452
G0 F7200 X157.4 Y47.03
G1 F1350 X157.4 Y176.249 E821.28934
G0 F7200 X159 Y176.249
G1 F1350 X159 Y47.03 E831.60416
G0 F7200 X160.6 Y47.03
G1 F1350 X160.6 Y176.249 E841.91898
G0 F7200 X162.2 Y176.249
G1 F1350 X162.2 Y47.03 E852.2338
G0 F7200 X163.8 Y47.03
G1 F1350 X163.8 Y176.249 E862.54862
G0 F7200 X165.4 Y176.249
G1 F1350 X165.4 Y47.03 E872.86344
G0 F7200 X167 Y47.03
G1 F1350 X167 Y176.249 E883.17826
G0 F7200 X168.6 Y176.249
G1 F1350 X168.6 Y47.03 E893.49308
G0 F7200 X170.2 Y47.03
G1 F1350 X170.2 Y176.249 E903.8079
G0 F7200 X171.8 Y176.249
G1 F1350 X171.8 Y47.03 E914.12272
G0 F7200 X173.4 Y47.03
G1 F1350 X173.4 Y176.249 E924.43754
G0 F7200 X175 Y176.249
G1 F1350 X175 Y47.03 E934.75236
G0 F7200 X176.6 Y47.03
G1 F1350 X176.6 Y176.249 E945.06718
G0 F7200 X178.2 Y176.249
G1 F1350 X178.2 Y47.03 E955.38199
G0 F7200 X179.8 Y47.03
G1 F1350 X179.8 Y176.249 E965.69681
G0 F7200 X181.4 Y176.249
G1 F1350 X181.4 Y47.03 E976.01163
G0 F7200 X183 Y47.03
G1 F1350 X183 Y176.249 E986.32645
G0 F7200 X184.6 Y176.249
G1 F1350 X184.6 Y47.03 E996.64127
G0 F7200 X186.2 Y47.03
G1 F1350 X186.2 Y176.249 E1006.95609
G0 F7200 X187.8 Y176.249
G1 F1350 X187.8 Y47.03 E1017.27091
G0 F7200 X189.4 Y47.03
G1 F1350 X189.4 Y176.249 E1027.58573
G0 F7200 X191 Y176.249
G1 F1350 X191 Y47.03 E1037.90055
G0 F7200 X192.6 Y47.03
G1 F1350 X192.6 Y176.249 E1048.21537
G0 F7200 X194.2 Y176.249
G1 F1350 X194.2 Y47.03 E1058.53019
G0 F7200 X195.8 Y47.03
G1 F1350 X195.8 Y176.249 E1068.84501
G0 F7200 X197.4 Y176.249
G1 F1350 X197.4 Y47.03 E1079.15983
G0 F7200 X199 Y47.03
G1 F1350 X199 Y176.249 E1089.47465
G0 F7200 X200.6 Y176.249
G1 F1350 X200.6 Y47.03 E1099.78947
G0 F7200 X202.2 Y47.03
G1 F1350 X202.2 Y176.249 E1110.10428
G0 F7200 X203.8 Y176.249
G1 F1350 X203.8 Y47.03 E1120.4191
G0 F7200 X205.4 Y47.03
G1 F1350 X205.4 Y176.249 E1130.73392
G0 F7200 X207 Y176.249
G1 F1350 X207 Y47.03 E1141.04874
G0 F7200 X208.6 Y47.03
G1 F1350 X208.6 Y176.249 E1151.36356
G0 F7200 X210.2 Y176.249
G1 F1350 X210.2 Y47.03 E1161.67838
G0 F7200 X211.8 Y47.03
G1 F1350 X211.8 Y176.249 E1171.9932
G0 F7200 X213.4 Y176.249
G1 F1350 X213.4 Y47.03 E1182.30802
G0 F7200 X215 Y47.03
G1 F1350 X215 Y176.249 E1192.62284
G0 F7200 X216.6 Y176.249
G1 F1350 X216.6 Y47.03 E1202.93766
G0 F7200 X218.2 Y47.03
G1 F1350 X218.2 Y176.249 E1213.25248
G0 F7200 X219.8 Y176.249
G1 F1350 X219.8 Y47.03 E1223.5673
