;START_OF_HEADER
;HEADER_VERSION:0.1
;FLAVOR:Griffin
;GENERATOR.NAME:Cura_SteamEngine
;GENERATOR.VERSION:4.4.1
;GENERATOR.BUILD_DATE:2019-12-23
;TARGET_MACHINE.NAME:Ultimaker S5
;EXTRUDER_TRAIN.0.INITIAL_TEMPERATURE:200
;EXTRUDER_TRAIN.0.MATERIAL.VOLUME_USED:7673
;EXTRUDER_TRAIN.0.MATERIAL.GUID:506c9f0d-e3aa-4bd4-b2d2-23e2425b1aa9
;EXTRUDER_TRAIN.0.NOZZLE.DIAMETER:0.4
;EXTRUDER_TRAIN.0.NOZZLE.NAME:AA 0.4
;BUILD_PLATE.TYPE:glass
;BUILD_PLATE.INITIAL_TEMPERATURE:60
;BUILD_VOLUME.TEMPERATURE:28
;PRINT.TIME:7300
;PRINT.GROUPS:1
;PRINT.SIZE.MIN.X:191.625
;PRINT.SIZE.MIN.Y:144.588
;PRINT.SIZE.MIN.Z:0.2
;PRINT.SIZE.MAX.X:288.035
;PRINT.SIZE.MAX.Y:196.548
;PRINT.SIZE.MAX.Z:3
;END_OF_HEADER
;Generated with Cura_SteamEngine 4.4.1
T0
M82 ;absolute extrusion mode

G92 E0
M109 S200
G280 S1
G0 Z20.001
G1 F1500 E-6.5
;LAYER_COUNT:29
;LAYER:0
M107
M204 S625
M205 X10 Y10
G1 F600 Z2.2
G0 F2571.4 X286.644 Y193.783 Z2.2
M204 S500
M205 X5 Y5
;TYPE:SKIRT
G1 F600 Z0.2
G1 F1500 E0
G1 F1200 X286.165 Y194.353 E0.0098
G1 X285.628 Y194.868 E0.0196
G1 X285.039 Y195.323 E0.0294
G1 X284.405 Y195.712 E0.0392
G1 X283.732 Y196.031 E0.049
G1 X283.029 Y196.276 E0.0588
G1 X282.304 Y196.444 E0.0686
G1 X281.565 Y196.533 E0.0784
G1 X281.105 Y196.548 E0.08447
G1 X198.555 Y196.548 E1.17143
G1 X197.812 Y196.508 E1.18123
G1 X197.077 Y196.389 E1.19103
G1 X196.359 Y196.191 E1.20084
G1 X195.667 Y195.918 E1.21064
G1 X195.008 Y195.572 E1.22044
G1 X194.39 Y195.157 E1.23024
G1 X193.82 Y194.678 E1.24004
G1 X193.305 Y194.141 E1.24984
G1 X192.85 Y193.552 E1.25964
G1 X192.461 Y192.918 E1.26943
G1 X192.142 Y192.245 E1.27924
G1 X191.897 Y191.542 E1.28904
G1 X191.729 Y190.817 E1.29884
G1 X191.64 Y190.078 E1.30864
G1 X191.625 Y189.618 E1.3147
G1 X191.625 Y151.518 E1.81638
G1 X191.665 Y150.775 E1.82618
G1 X191.784 Y150.04 E1.83598
G1 X191.982 Y149.322 E1.84579
G1 X192.255 Y148.63 E1.85559
G1 X192.601 Y147.971 E1.86539
G1 X193.016 Y147.353 E1.87519
G1 X193.495 Y146.783 E1.88499
G1 X194.032 Y146.268 E1.89479
G1 X194.621 Y145.813 E1.90459
G1 X195.255 Y145.424 E1.91438
G1 X195.928 Y145.105 E1.92419
G1 X196.631 Y144.86 E1.93399
G1 X197.356 Y144.692 E1.94379
G1 X198.095 Y144.603 E1.95359
G1 X198.555 Y144.588 E1.95965
G1 X281.105 Y144.588 E3.04662
G1 X281.848 Y144.628 E3.05642
G1 X282.583 Y144.747 E3.06622
G1 X283.301 Y144.945 E3.07603
G1 X283.993 Y145.218 E3.08583
G1 X284.652 Y145.564 E3.09563
G1 X285.27 Y145.979 E3.10543
G1 X285.84 Y146.458 E3.11523
G1 X286.355 Y146.995 E3.12503
G1 X286.81 Y147.584 E3.13483
G1 X287.199 Y148.218 E3.14462
G1 X287.518 Y148.891 E3.15443
G1 X287.763 Y149.594 E3.16423
G1 X287.931 Y150.319 E3.17403
G1 X288.02 Y151.058 E3.18383
G1 X288.035 Y151.518 E3.18989
G1 X288.035 Y189.618 E3.69157
G1 X287.995 Y190.361 E3.70137
G1 X287.876 Y191.096 E3.71117
G1 X287.678 Y191.814 E3.72098
G1 X287.405 Y192.506 E3.73078
G1 X287.059 Y193.165 E3.74058
G1 X286.644 Y193.783 E3.75038
M204 S625
M205 X10 Y10
G0 F2571.4 X286.227 Y193.636
M204 S500
M205 X5 Y5
G1 F1200 X285.751 Y194.178 E3.75988
G1 X285.218 Y194.664 E3.76937
G1 X284.634 Y195.088 E3.77888
G1 X284.007 Y195.445 E3.78838
G1 X283.345 Y195.731 E3.79787
G1 X282.655 Y195.941 E3.80737
G1 X281.946 Y196.073 E3.81687
G1 X281.105 Y196.128 E3.82796
G1 X198.555 Y196.128 E4.91493
G1 X197.835 Y196.088 E4.92443
G1 X197.123 Y195.969 E4.93393
G1 X196.429 Y195.771 E4.94343
G1 X195.762 Y195.498 E4.95292
G1 X195.128 Y195.153 E4.96243
G1 X194.537 Y194.74 E4.97192
G1 X193.995 Y194.264 E4.98142
G1 X193.509 Y193.731 E4.99092
G1 X193.085 Y193.147 E5.00042
G1 X192.728 Y192.52 E5.00992
G1 X192.442 Y191.858 E5.01942
G1 X192.232 Y191.168 E5.02891
G1 X192.1 Y190.459 E5.03841
G1 X192.045 Y189.618 E5.04951
G1 X192.045 Y151.518 E5.55118
G1 X192.085 Y150.798 E5.56068
G1 X192.204 Y150.086 E5.57018
G1 X192.402 Y149.392 E5.57969
G1 X192.675 Y148.725 E5.58918
G1 X193.02 Y148.091 E5.59868
G1 X193.433 Y147.5 E5.60818
G1 X193.909 Y146.958 E5.61767
G1 X194.442 Y146.472 E5.62717
G1 X195.026 Y146.048 E5.63667
G1 X195.653 Y145.691 E5.64617
G1 X196.315 Y145.405 E5.65567
G1 X197.005 Y145.195 E5.66517
G1 X197.714 Y145.063 E5.67466
G1 X198.555 Y145.008 E5.68576
G1 X281.105 Y145.008 E6.77273
G1 X281.825 Y145.048 E6.78222
G1 X282.537 Y145.167 E6.79173
G1 X283.231 Y145.365 E6.80123
G1 X283.898 Y145.638 E6.81072
G1 X284.532 Y145.983 E6.82023
G1 X285.123 Y146.396 E6.82972
G1 X285.665 Y146.872 E6.83922
G1 X286.151 Y147.405 E6.84872
G1 X286.575 Y147.989 E6.85822
G1 X286.932 Y148.616 E6.86772
G1 X287.218 Y149.278 E6.87721
G1 X287.428 Y149.968 E6.88671
G1 X287.56 Y150.677 E6.89621
G1 X287.615 Y151.518 E6.9073
G1 X287.615 Y189.618 E7.40898
G1 X287.575 Y190.338 E7.41848
G1 X287.456 Y191.05 E7.42798
G1 X287.258 Y191.744 E7.43749
G1 X286.985 Y192.411 E7.44697
G1 X286.64 Y193.045 E7.45648
G1 X286.227 Y193.636 E7.46597
M204 S625
M205 X10 Y10
G0 F2571.4 X285.81 Y193.484
M204 S500
M205 X5 Y5
G1 F1200 X285.337 Y193.997 E7.47516
G1 X284.809 Y194.452 E7.48434
G1 X284.232 Y194.844 E7.49352
G1 X283.613 Y195.167 E7.50272
G1 X282.962 Y195.418 E7.5119
G1 X282.286 Y195.592 E7.5211
G1 X281.595 Y195.688 E7.53028
G1 X281.105 Y195.708 E7.53674
G1 X198.555 Y195.708 E8.62371
G1 X197.858 Y195.668 E8.6329
G1 X197.171 Y195.549 E8.64208
G1 X196.502 Y195.351 E8.65127
G1 X195.859 Y195.079 E8.66046
G1 X195.253 Y194.735 E8.66964
G1 X194.689 Y194.323 E8.67883
G1 X194.176 Y193.85 E8.68802
G1 X193.721 Y193.322 E8.6972
G1 X193.329 Y192.745 E8.70638
G1 X193.006 Y192.126 E8.71558
G1 X192.755 Y191.475 E8.72476
G1 X192.581 Y190.799 E8.73395
G1 X192.485 Y190.108 E8.74314
G1 X192.465 Y189.618 E8.7496
G1 X192.465 Y151.518 E9.25128
G1 X192.505 Y150.821 E9.26047
G1 X192.624 Y150.134 E9.26965
G1 X192.822 Y149.465 E9.27884
G1 X193.094 Y148.822 E9.28803
G1 X193.438 Y148.216 E9.2972
G1 X193.85 Y147.652 E9.3064
G1 X194.323 Y147.139 E9.31559
G1 X194.851 Y146.684 E9.32477
G1 X195.428 Y146.292 E9.33395
G1 X196.047 Y145.969 E9.34315
G1 X196.698 Y145.718 E9.35233
G1 X197.374 Y145.544 E9.36152
G1 X198.065 Y145.448 E9.37071
G1 X198.555 Y145.428 E9.37717
G1 X281.105 Y145.428 E10.46414
G1 X281.802 Y145.468 E10.47333
G1 X282.489 Y145.587 E10.48251
G1 X283.158 Y145.785 E10.4917
G1 X283.801 Y146.057 E10.50089
G1 X284.407 Y146.401 E10.51006
G1 X284.971 Y146.813 E10.51926
G1 X285.484 Y147.286 E10.52845
G1 X285.939 Y147.814 E10.53763
G1 X286.331 Y148.391 E10.54681
G1 X286.654 Y149.01 E10.556
G1 X286.905 Y149.661 E10.56519
G1 X287.079 Y150.337 E10.57438
G1 X287.175 Y151.028 E10.58357
G1 X287.195 Y151.518 E10.59003
G1 X287.195 Y189.618 E11.0917
G1 X287.155 Y190.315 E11.1009
G1 X287.036 Y191.002 E11.11008
G1 X286.838 Y191.671 E11.11926
G1 X286.566 Y192.314 E11.12846
G1 X286.222 Y192.92 E11.13763
G1 X285.81 Y193.484 E11.14683
M204 S625
M205 X10 Y10
G0 F2571.4 X285.804 Y192.791
M204 S500
M205 X5 Y5
G1 F1200 X285.395 Y193.326 E11.1557
G1 X284.925 Y193.808 E11.16456
G1 X284.401 Y194.231 E11.17343
G1 X283.831 Y194.59 E11.1823
G1 X283.223 Y194.878 E11.19116
G1 X282.585 Y195.092 E11.20002
G1 X281.925 Y195.228 E11.20889
G1 X281.105 Y195.288 E11.21972
G1 X198.555 Y195.288 E12.30669
G1 X197.883 Y195.248 E12.31555
G1 X197.22 Y195.129 E12.32442
G1 X196.577 Y194.932 E12.33327
G1 X195.961 Y194.66 E12.34214
G1 X195.382 Y194.317 E12.351
G1 X194.847 Y193.908 E12.35987
G1 X194.365 Y193.438 E12.36873
G1 X193.942 Y192.914 E12.3776
G1 X193.583 Y192.344 E12.38647
G1 X193.295 Y191.736 E12.39533
G1 X193.081 Y191.098 E12.40419
G1 X192.945 Y190.438 E12.41306
G1 X192.885 Y189.618 E12.42389
G1 X192.885 Y151.518 E12.92557
G1 X192.925 Y150.846 E12.93443
G1 X193.044 Y150.183 E12.9433
G1 X193.241 Y149.54 E12.95216
G1 X193.513 Y148.924 E12.96102
G1 X193.856 Y148.345 E12.96988
G1 X194.265 Y147.81 E12.97875
G1 X194.735 Y147.328 E12.98762
G1 X195.259 Y146.905 E12.99648
G1 X195.829 Y146.546 E13.00535
G1 X196.437 Y146.258 E13.01421
G1 X197.075 Y146.044 E13.02307
G1 X197.735 Y145.908 E13.03195
G1 X198.555 Y145.848 E13.04277
G1 X281.105 Y145.848 E14.12974
G1 X281.777 Y145.888 E14.1386
G1 X282.44 Y146.007 E14.14747
G1 X283.083 Y146.204 E14.15633
G1 X283.699 Y146.476 E14.16519
G1 X284.278 Y146.819 E14.17406
G1 X284.813 Y147.228 E14.18292
G1 X285.295 Y147.698 E14.19179
G1 X285.718 Y148.222 E14.20065
G1 X286.077 Y148.792 E14.20952
G1 X286.365 Y149.4 E14.21838
G1 X286.579 Y150.038 E14.22724
G1 X286.715 Y150.698 E14.23612
G1 X286.775 Y151.518 E14.24694
G1 X286.775 Y189.618 E14.74862
G1 X286.735 Y190.29 E14.75749
G1 X286.616 Y190.953 E14.76635
G1 X286.419 Y191.596 E14.77521
G1 X286.147 Y192.212 E14.78408
G1 X285.804 Y192.791 E14.79294
M204 S625
M205 X10 Y10
G0 F2571.4 X285.386 Y192.657
M204 S500
M205 X5 Y5
G1 F1200 X284.979 Y193.161 E14.80147
G1 X284.513 Y193.611 E14.81
G1 X283.996 Y194 E14.81852
G1 X283.434 Y194.323 E14.82705
G1 X282.837 Y194.574 E14.83558
G1 X282.213 Y194.75 E14.84412
G1 X281.573 Y194.847 E14.85264
G1 X281.105 Y194.868 E14.85881
G1 X198.555 Y194.868 E15.94578
G1 X197.908 Y194.828 E15.95431
G1 X197.272 Y194.709 E15.96283
G1 X196.655 Y194.512 E15.97136
G1 X196.066 Y194.241 E15.9799
G1 X195.516 Y193.899 E15.98843
G1 X195.012 Y193.492 E15.99696
G1 X194.562 Y193.026 E16.00549
G1 X194.173 Y192.509 E16.014
G1 X193.85 Y191.947 E16.02254
G1 X193.599 Y191.35 E16.03107
G1 X193.423 Y190.726 E16.0396
G1 X193.326 Y190.086 E16.04813
G1 X193.305 Y189.618 E16.0543
G1 X193.305 Y151.518 E16.55597
G1 X193.345 Y150.871 E16.56451
G1 X193.464 Y150.235 E16.57303
G1 X193.661 Y149.618 E16.58156
G1 X193.932 Y149.029 E16.59009
G1 X194.274 Y148.479 E16.59862
G1 X194.681 Y147.975 E16.60715
G1 X195.147 Y147.525 E16.61568
G1 X195.664 Y147.136 E16.6242
G1 X196.226 Y146.813 E16.63274
G1 X196.823 Y146.562 E16.64126
G1 X197.447 Y146.386 E16.6498
G1 X198.087 Y146.289 E16.65832
G1 X198.555 Y146.268 E16.66449
G1 X281.105 Y146.268 E17.75146
G1 X281.752 Y146.308 E17.76
G1 X282.388 Y146.427 E17.76852
G1 X283.005 Y146.624 E17.77705
G1 X283.594 Y146.895 E17.78558
G1 X284.144 Y147.237 E17.79411
G1 X284.648 Y147.644 E17.80264
G1 X285.098 Y148.11 E17.81117
G1 X285.487 Y148.627 E17.81969
G1 X285.81 Y149.189 E17.82822
G1 X286.061 Y149.786 E17.83675
G1 X286.237 Y150.41 E17.84529
G1 X286.334 Y151.05 E17.85381
G1 X286.355 Y151.518 E17.85998
G1 X286.355 Y189.618 E18.36166
G1 X286.315 Y190.265 E18.37019
G1 X286.196 Y190.901 E18.37871
G1 X285.999 Y191.518 E18.38724
G1 X285.728 Y192.107 E18.39578
G1 X285.386 Y192.657 E18.40431
M204 S625
M205 X10 Y10
G0 F2571.4 X284.969 Y192.516
M204 S500
M205 X5 Y5
G1 F1200 X284.565 Y192.988 E18.41249
G1 X284.103 Y193.405 E18.42068
G1 X283.593 Y193.758 E18.42885
G1 X283.041 Y194.043 E18.43703
G1 X282.456 Y194.255 E18.44522
G1 X281.85 Y194.39 E18.4534
G1 X281.105 Y194.448 E18.46324
G1 X198.555 Y194.448 E19.55021
G1 X197.935 Y194.408 E19.55839
G1 X197.325 Y194.289 E19.56657
G1 X196.736 Y194.092 E19.57475
G1 X196.177 Y193.822 E19.58292
G1 X195.657 Y193.482 E19.5911
G1 X195.185 Y193.078 E19.59928
G1 X194.768 Y192.616 E19.60748
G1 X194.415 Y192.106 E19.61565
G1 X194.13 Y191.554 E19.62383
G1 X193.918 Y190.969 E19.63202
G1 X193.783 Y190.363 E19.64019
G1 X193.725 Y189.618 E19.65003
G1 X193.725 Y151.518 E20.15171
G1 X193.765 Y150.898 E20.15989
G1 X193.884 Y150.288 E20.16807
G1 X194.081 Y149.699 E20.17625
G1 X194.351 Y149.14 E20.18443
G1 X194.691 Y148.62 E20.19261
G1 X195.095 Y148.148 E20.20079
G1 X195.557 Y147.731 E20.20898
G1 X196.067 Y147.378 E20.21715
G1 X196.619 Y147.093 E20.22533
G1 X197.204 Y146.881 E20.23352
G1 X197.81 Y146.746 E20.2417
G1 X198.555 Y146.688 E20.25154
G1 X281.105 Y146.688 E21.33851
G1 X281.725 Y146.728 E21.34669
G1 X282.335 Y146.847 E21.35487
G1 X282.924 Y147.044 E21.36305
G1 X283.483 Y147.314 E21.37122
G1 X284.003 Y147.654 E21.3794
G1 X284.475 Y148.058 E21.38758
G1 X284.892 Y148.52 E21.39578
G1 X285.245 Y149.03 E21.40395
G1 X285.53 Y149.582 E21.41213
G1 X285.742 Y150.167 E21.42032
G1 X285.877 Y150.773 E21.42849
G1 X285.935 Y151.518 E21.43833
G1 X285.935 Y189.618 E21.94001
G1 X285.895 Y190.238 E21.94819
G1 X285.776 Y190.848 E21.95638
G1 X285.579 Y191.437 E21.96455
G1 X285.309 Y191.996 E21.97273
G1 X284.969 Y192.516 E21.98091
M204 S625
M205 X10 Y10
G0 F2571.4 X284.552 Y192.369
M204 S500
M205 X5 Y5
G1 F1200 X284.151 Y192.807 E21.98873
G1 X283.695 Y193.187 E21.99654
G1 X283.192 Y193.503 E22.00436
G1 X282.652 Y193.748 E22.01217
G1 X282.083 Y193.918 E22.01999
G1 X281.497 Y194.011 E22.02781
G1 X281.105 Y194.028 E22.03297
G1 X198.555 Y194.028 E23.11994
G1 X197.963 Y193.988 E23.12775
G1 X197.381 Y193.869 E23.13557
G1 X196.821 Y193.673 E23.14339
G1 X196.292 Y193.403 E23.15121
G1 X195.804 Y193.065 E23.15902
G1 X195.366 Y192.664 E23.16684
G1 X194.986 Y192.208 E23.17466
G1 X194.67 Y191.705 E23.18248
G1 X194.425 Y191.165 E23.19029
G1 X194.255 Y190.596 E23.19811
G1 X194.162 Y190.01 E23.20592
G1 X194.145 Y189.618 E23.21109
G1 X194.145 Y151.518 E23.71276
G1 X194.185 Y150.926 E23.72058
G1 X194.304 Y150.344 E23.7284
G1 X194.5 Y149.784 E23.73621
G1 X194.77 Y149.255 E23.74403
G1 X195.108 Y148.767 E23.75185
G1 X195.509 Y148.329 E23.75967
G1 X195.965 Y147.949 E23.76748
G1 X196.468 Y147.633 E23.77531
G1 X197.008 Y147.388 E23.78311
G1 X197.577 Y147.218 E23.79093
G1 X198.163 Y147.125 E23.79875
G1 X198.555 Y147.108 E23.80391
G1 X281.105 Y147.108 E24.89088
G1 X281.697 Y147.148 E24.89869
G1 X282.279 Y147.267 E24.90652
G1 X282.839 Y147.463 E24.91433
G1 X283.368 Y147.733 E24.92215
G1 X283.856 Y148.071 E24.92996
G1 X284.294 Y148.472 E24.93778
G1 X284.674 Y148.928 E24.9456
G1 X284.99 Y149.431 E24.95342
G1 X285.235 Y149.971 E24.96123
G1 X285.405 Y150.54 E24.96905
G1 X285.498 Y151.126 E24.97686
G1 X285.515 Y151.518 E24.98203
G1 X285.515 Y189.618 E25.48371
G1 X285.475 Y190.21 E25.49152
G1 X285.356 Y190.792 E25.49934
G1 X285.16 Y191.352 E25.50715
G1 X284.89 Y191.881 E25.51497
G1 X284.552 Y192.369 E25.52279
M204 S625
M205 X10 Y10
G0 F2571.4 X284.136 Y192.213
M204 S500
M205 X5 Y5
G1 F1200 X283.739 Y192.615 E25.53023
G1 X283.29 Y192.957 E25.53766
G1 X282.796 Y193.232 E25.54511
G1 X282.269 Y193.434 E25.55254
G1 X281.719 Y193.56 E25.55997
G1 X281.105 Y193.608 E25.56808
G1 X198.555 Y193.608 E26.65504
G1 X197.992 Y193.568 E26.66248
G1 X197.44 Y193.449 E26.66991
G1 X196.91 Y193.253 E26.67735
G1 X196.414 Y192.985 E26.68478
G1 X195.96 Y192.649 E26.69221
G1 X195.558 Y192.252 E26.69965
G1 X195.216 Y191.803 E26.70708
G1 X194.941 Y191.309 E26.71453
G1 X194.739 Y190.782 E26.72196
G1 X194.613 Y190.232 E26.72939
G1 X194.565 Y189.618 E26.7375
G1 X194.565 Y151.518 E27.23918
G1 X194.605 Y150.955 E27.24661
G1 X194.724 Y150.403 E27.25404
G1 X194.92 Y149.873 E27.26148
G1 X195.188 Y149.377 E27.26891
G1 X195.524 Y148.923 E27.27635
G1 X195.921 Y148.521 E27.28378
G1 X196.37 Y148.179 E27.29122
G1 X196.864 Y147.904 E27.29866
G1 X197.391 Y147.702 E27.30609
G1 X197.941 Y147.576 E27.31352
G1 X198.555 Y147.528 E27.32163
G1 X281.105 Y147.528 E28.4086
G1 X281.668 Y147.568 E28.41603
G1 X282.22 Y147.687 E28.42347
G1 X282.75 Y147.883 E28.43091
G1 X283.246 Y148.151 E28.43833
G1 X283.7 Y148.487 E28.44577
G1 X284.102 Y148.884 E28.45321
G1 X284.444 Y149.333 E28.46064
G1 X284.719 Y149.827 E28.46808
G1 X284.921 Y150.354 E28.47552
G1 X285.047 Y150.904 E28.48295
G1 X285.095 Y151.518 E28.49105
G1 X285.095 Y189.618 E28.99273
G1 X285.055 Y190.181 E29.00016
G1 X284.936 Y190.733 E29.0076
G1 X284.74 Y191.263 E29.01504
G1 X284.472 Y191.759 E29.02246
G1 X284.136 Y192.213 E29.0299
M204 S625
M205 X10 Y10
G0 F2571.4 X284.054 Y191.631
M204 S500
M205 X5 Y5
G1 F1200 X283.72 Y192.048 E29.03694
G1 X283.329 Y192.411 E29.04396
G1 X282.887 Y192.711 E29.05099
G1 X282.406 Y192.943 E29.05803
G1 X281.895 Y193.099 E29.06506
G1 X281.105 Y193.188 E29.07553
G1 X198.555 Y193.188 E30.1625
G1 X198.022 Y193.148 E30.16954
G1 X197.502 Y193.029 E30.17656
G1 X197.005 Y192.834 E30.18359
G1 X196.542 Y192.567 E30.19063
G1 X196.125 Y192.233 E30.19766
G1 X195.762 Y191.842 E30.20469
G1 X195.462 Y191.4 E30.21172
G1 X195.23 Y190.919 E30.21875
G1 X195.074 Y190.408 E30.22579
G1 X194.985 Y189.618 E30.23626
G1 X194.985 Y151.518 E30.73793
G1 X195.025 Y150.985 E30.74497
G1 X195.144 Y150.465 E30.752
G1 X195.339 Y149.968 E30.75903
G1 X195.606 Y149.505 E30.76606
G1 X195.94 Y149.088 E30.7731
G1 X196.331 Y148.725 E30.78012
G1 X196.773 Y148.425 E30.78716
